!!!COM: Palestrina, Giovanni Perluigi da
!!!OPR: Missa Veni creator Spiritus
!!!OMD: Credo
!!!OTL: Crucifixus
**kern	**kern	**kern	**kern
*Ibass	*Itenor	*Icalto	*Icant
!Bassus	!Tenor	!Altus	!Cantus
*clefF4	*clefGv2	*clefG2	*clefG2
*k[]	*k[]	*k[]	*k[]
*G:mix	*G:mix	*G:mix	*G:mix
*M4/2	*M4/2	*M4/2	*M4/2
=75	=75	=75	=75
0r	0r	1r	1.dd
.	.	[1g	.
.	.	.	2b
=76	=76	=76	=76
0r	0r	2g]	2.ee
.	.	2e	.
.	.	.	4dd
.	.	1a	4cc
.	.	.	4b
.	.	.	2cc
=77	=77	=77	=77
0r	0r	0g	4b
.	.	.	4a
.	.	.	4b
.	.	.	4cc
.	.	.	2dd
.	.	.	[2ee
=78	=78	=78	=78
0r	0r	1.a	2ee]
.	.	.	2dd
.	.	.	2cc
.	.	2g	2b
=79	=79	=79	=79
0r	0r	2f	2a
.	.	2e	2.b
.	.	2d	.
.	.	.	4a
.	.	[2g	4b
.	.	.	4g
=80	=80	=80	=80
1r	1.d	4g]	1a
.	.	8f#	.
.	.	8e	.
.	.	2f#	.
[1G	.	1g	2b
.	2B	.	4dd
.	.	.	4cc
=81	=81	=81	=81
2G]	2.e	2.g	4b
.	.	.	4a
2E	.	.	1g
.	4d	4f	.
1A	4c	2e	.
.	4B	.	.
.	2c	2c	2f#
=82	=82	=82	=82
0G	4B	2.d	0g
.	4A	.	.
.	4B	.	.
.	4c	4c	.
.	2d	1B	.
.	[2e	.	.
=83	=83	=83	=83
1.A	2e]	0r	0r
.	2d	.	.
.	2c	.	.
2G	2B	.	.
=84	=84	=84	=84
2F	4A	0r	1r
.	4B	.	.
2E	1c	.	.
1D	.	.	1dd
.	2B	.	.
=85	=85	=85	=85
0C	1c	2r	1.ee
.	.	2g	.
.	1r	2a	.
.	.	2a	2cc
=86	=86	=86	=86
0r	0r	2f	2dd
.	.	2e	2ee
.	.	4d	1ff
.	.	4e	.
.	.	4f	.
.	.	4g	.
=87	=87	=87	=87
1r	0r	4a	2.ee
.	.	4b	.
.	.	1cc	.
.	.	.	8dd
.	.	.	8cc
1G	.	.	2dd
.	.	2b	2dd
=88	=88	=88	=88
1.A	0r	2.a	2cc
.	.	.	2a
.	.	8g	.
.	.	8f	.
.	.	2e	1cc
2F	.	2a	.
=89	=89	=89	=89
2G	1r	2g	2b-
2A	.	2.f	1a
1B-	1d	.	.
.	.	4e	.
.	.	[2d	2g
=90	=90	=90	=90
0A	1.e	2d]	[0a
.	.	4c	.
.	.	4B	.
.	.	4c	.
.	.	4d	.
.	2c	4e	.
.	.	8d	.
.	.	8e	.
=91	=91	=91	=91
0r	2d	2f	1a]
.	2e	2c	.
.	1f	1d	2r
.	.	.	[2dd
=92	=92	=92	=92
0A	0e	1r	2dd]
.	.	.	4cc
.	.	.	4b
.	.	[1a	1cc
=93	=93	=93	=93
0E	0e	2a]	0b
.	.	4g	.
.	.	4f#	.
.	.	1g	.
=94	=94	=94	=94
2.A	1e	2a	2.cc
.	.	1cc	.
4G	.	.	4b
2F	2f	.	2a
2G	2d	2b-	4g
.	.	.	4f
=95	=95	=95	=95
2A	2c#	2a	2e
2B-	2.d	2g	2d
1A	.	[1a	2e
.	8c#	.	.
.	8B	.	.
.	2c#	.	2e
=96	=96	=96	=96
1D	1d	1a]	1f#
1r	1r	1r	1r
*-	*-	*-	*-
!!!CDT: 1525/^1526/-1594/2/2
!!!OCY: Italia
!!!AGN: Mass (Tenor)
!!!AST: renaissance, vocal
!!!ASW: Hymn
!!!PWK: Masses, Book 9
!!!RNB: Cadence finals: C,D
!!!YOR: Le Opere Complete, v. 25, p. 246
!!!YOO: Rome, Italy: Fratelli Scalera
!!!END: 1992//
!!!EED: John Miller
!!!YEC: Copyright 2000, John Miller
!!!YEN: United States of America
!!!YEM: Rights to all derivative electronic formats reserved.
!!!YEM: Refer to licensing agreement for further details.
!!!YEM: This file must be accompanied by the licensing agreement.
!!!YEM: A copy of the licensing agreement may be found at http://www.music-cog.ohio-state.edu/HumdrumDatabases/Palestrina/license.txt
!!!EMD: converted to Humdrum by Bret Aarden
